public/images/hashed/b9b1a8bb2f1c883a20e62f0fca2a276a.svg

<?xml version="1.0" encoding="UTF-8"?>
<svg width="80px" height="80px" viewBox="0 0 80 80" version="1.1" xmlns="http://www.w3.org/2000/svg" xmlns:xlink="http://www.w3.org/1999/xlink">
    <!-- Generator: Sketch 64 (93537) - https://sketch.com -->
    <title>Icon-Architecture/64/Arch_AWS-Systems-Manager_64</title>
    <desc>Created with Sketch.</desc>
    <defs>
        <linearGradient x1="0%" y1="100%" x2="100%" y2="0%" id="linearGradient-1">
            <stop stop-color="#B0084D" offset="0%"></stop>
            <stop stop-color="#FF4F8B" offset="100%"></stop>
        </linearGradient>
    </defs>
    <g id="Icon-Architecture/64/Arch_AWS-Systems-Manager_64" stroke="none" stroke-width="1" fill="none" fill-rule="evenodd">
        <g id="Icon-Architecture-BG/64/Management-Governance" fill="url(#linearGradient-1)">
            <rect id="Rectangle" x="0" y="0" width="80" height="80"></rect>
        </g>
        <path d="M47,54.998059 L60,54.998059 L60,56.9983576 L47,56.9983576 L47,58.9986562 L45,58.9986562 L45,56.9983576 L41,56.9983576 L41,54.998059 L45,54.998059 L45,53.9979097 L47,53.9979097 L47,54.998059 Z M51,48.9971632 L60,48.9971632 L60,50.9974618 L51,50.9974618 L51,52.9977604 L49,52.9977604 L49,50.9974618 L41,50.9974618 L41,48.9971632 L49,48.9971632 L49,47.9970139 L51,47.9970139 L51,48.9971632 Z M56,42.9962674 L60,42.9962674 L60,44.996566 L56,44.996566 L56,46.9968646 L54,46.9968646 L54,44.996566 L41,44.996566 L41,42.9962674 L54,42.9962674 L54,41.9961181 L56,41.9961181 L56,42.9962674 Z M21,46.9968646 L30,46.9968646 L30,48.9971632 L21,48.9971632 C19.745,48.9971632 18.404,48.6201069 17.413,47.9890127 C15.393,46.7098217 12,43.7153747 12,38.0415277 C12,31.1605005 16.665,28.6351235 19.38,27.7499913 L19.326,26.8338546 C19.324,21.1660085 23.074,15.3541409 28.046,13.2568278 C33.869,10.7814582 40.036,12.0076413 44.545,16.5373175 C45.944,17.9385267 47.096,19.6477818 47.978,21.6310779 C49.749,20.1558577 52.16,19.6507823 54.4,20.385892 C57.247,21.3200315 59.019,23.9514243 59.227,27.4939531 C62.065,28.1730545 68,30.5084031 68,38.1315411 C68,38.4165837 67.989,38.6916247 67.978,38.954664 L65.979,38.9016561 C65.989,38.6346162 66,38.3885795 66,38.1315411 C66,31.3975359 60.443,29.7062834 58.054,29.2922216 C57.784,29.2452146 57.546,29.0911916 57.394,28.8641577 C57.243,28.6391241 57.19,28.3630829 57.246,28.0980433 C57.217,25.1165982 55.956,23.0012824 53.776,22.2861757 C51.823,21.6430797 49.677,22.3521855 48.434,24.0444382 C48.214,24.3414825 47.853,24.4965057 47.482,24.4404973 C47.116,24.3874894 46.81,24.1354518 46.686,23.7863996 C45.853,21.4430498 44.656,19.4797567 43.129,17.9505284 C39.216,14.0189415 33.867,12.9547827 28.826,15.0991028 C24.618,16.8733676 21.324,22.0021333 21.324,26.7748458 L21.423,28.4290927 C21.451,28.9071641 21.136,29.3382284 20.671,29.4562461 C18.18,30.0903407 14,32.0486331 14,38.0415277 C14,42.5211964 16.438,45.0045672 18.485,46.2997605 C19.16,46.7308249 20.123,46.9968646 21,46.9968646 L21,46.9968646 Z M66,52.3176589 L64.236,52.2166438 C63.763,52.1916401 63.312,52.5176887 63.204,52.9957601 C62.866,54.4939838 62.278,55.9141958 61.456,57.2163902 C61.195,57.630452 61.271,58.1715328 61.637,58.4975814 L62.954,59.6717567 L59.673,62.9542468 L58.502,61.6410507 C58.176,61.2739959 57.633,61.1999849 57.222,61.4610238 C55.92,62.2831466 54.499,62.8722345 52.997,63.2112851 C52.521,63.3193012 52.191,63.7563665 52.22,64.2444394 L52.32,65.9997014 L47.68,65.9997014 L47.78,64.2424391 C47.809,63.7543662 47.479,63.317301 47.003,63.2092848 C45.505,62.8712344 44.084,62.2811463 42.78,61.4580234 C42.367,61.1959843 41.825,61.2709955 41.5,61.6380503 L40.326,62.9532466 L37.046,59.6717567 L38.361,58.4995817 C38.726,58.1735331 38.802,57.6324523 38.541,57.2193906 C37.72,55.9171962 37.132,54.4969842 36.794,52.9957601 C36.687,52.5176887 36.209,52.1916401 35.762,52.2166438 L34,52.3176589 L34,47.6769661 L35.768,47.7779812 C36.233,47.8039851 36.691,47.4769362 36.8,46.999865 C37.139,45.5046418 37.728,44.0864301 38.55,42.7852359 C38.811,42.371174 38.734,41.8290931 38.37,41.5040446 L37.046,40.3228683 L40.327,37.0413784 L41.508,38.3645759 C41.834,38.7286303 42.376,38.8036415 42.787,38.5436027 C44.087,37.7244804 45.505,37.1373927 47.003,36.7993423 C47.479,36.6913261 47.809,36.2542609 47.78,35.766188 L47.68,33.9949236 L52.32,33.9949236 L52.22,35.7681883 C52.191,36.2562612 52.521,36.6923263 52.997,36.8003424 C54.492,37.139393 55.909,37.7264807 57.211,38.5466031 C57.622,38.8076421 58.165,38.7316307 58.49,38.3675764 L59.673,37.0413784 L62.954,40.3228683 L61.633,41.5010441 C61.269,41.8270928 61.192,42.3681736 61.453,42.7822354 C62.275,44.0834297 62.864,45.5026415 63.202,46.999865 C63.31,47.4759361 63.763,47.8039851 64.234,47.7779812 L66,47.6769661 L66,52.3176589 Z M66.943,45.619659 L64.942,45.733676 C64.617,44.5885051 64.16,43.4873407 63.579,42.4451851 L65.076,41.1099858 C65.281,40.9269584 65.402,40.6679198 65.41,40.3918786 C65.418,40.1178377 65.312,39.8507978 65.117,39.6567688 L60.339,34.8780554 C60.145,34.6830263 59.868,34.5710096 59.604,34.5860118 C59.328,34.594013 59.069,34.714031 58.886,34.9190616 L57.546,36.4212858 C56.505,35.8411992 55.406,35.3861313 54.263,35.0600826 L54.377,33.0517828 C54.393,32.7767418 54.295,32.5077016 54.105,32.3076717 C53.917,32.1076419 53.654,31.994625 53.379,31.994625 L46.621,31.994625 C46.346,31.994625 46.083,32.1076419 45.895,32.3076717 C45.705,32.5077016 45.607,32.7767418 45.623,33.0517828 L45.737,35.0580823 C44.592,35.3831308 43.492,35.8391989 42.452,36.4182854 L41.114,34.9190616 C40.931,34.714031 40.672,34.594013 40.396,34.5860118 C40.113,34.5730099 39.855,34.6830263 39.661,34.8780554 L34.883,39.6567688 C34.688,39.8507978 34.582,40.1178377 34.59,40.3918786 C34.598,40.6669196 34.719,40.9269584 34.924,41.1099858 L36.424,42.4481855 C35.843,43.4903411 35.386,44.5895052 35.06,45.733676 L33.057,45.619659 C32.789,45.6016563 32.513,45.7026714 32.313,45.8906994 C32.113,46.0797277 32,46.3427669 32,46.617808 L32,53.376817 C32,53.6518581 32.113,53.9148973 32.313,54.1039255 C32.513,54.2919536 32.79,54.3899682 33.057,54.374966 L35.053,54.260949 C35.378,55.4091204 35.834,56.5112849 36.415,57.5544407 L34.924,58.8836391 C34.719,59.0666664 34.598,59.3267052 34.59,59.6017463 C34.582,59.8767873 34.688,60.1438272 34.883,60.3378562 L39.661,65.1165696 C39.855,65.3115987 40.138,65.4186146 40.396,65.4096133 C40.672,65.4016121 40.932,65.280594 41.114,65.0755634 L42.444,63.5833407 C43.487,64.1664277 44.59,64.6244961 45.736,64.9505448 L45.623,66.9428422 C45.607,67.2168831 45.705,67.4859233 45.895,67.6869533 C46.083,67.8869831 46.346,68 46.621,68 L53.379,68 C53.654,68 53.917,67.8869831 54.106,67.6869533 C54.295,67.4859233 54.393,67.2168831 54.377,66.9428422 L54.264,64.9525451 C55.412,64.6254962 56.515,64.168428 57.558,63.5863411 L58.886,65.0755634 C59.068,65.280594 59.328,65.4016121 59.604,65.4096133 C59.871,65.4216151 60.145,65.3115987 60.339,65.1165696 L65.117,60.3378562 C65.312,60.1438272 65.418,59.8767873 65.41,59.6017463 C65.402,59.3267052 65.281,59.0666664 65.075,58.8836391 L63.582,57.5524404 C64.163,56.5092846 64.619,55.4071201 64.945,54.260949 L66.943,54.374966 C67.213,54.3899682 67.487,54.2919536 67.687,54.1039255 C67.887,53.9148973 68,53.6518581 68,53.376817 L68,46.617808 C68,46.3427669 67.887,46.0797277 67.687,45.8906994 C67.487,45.7026714 67.214,45.6026564 66.943,45.619659 L66.943,45.619659 Z" id="AWS-Systems-Manager_Icon_64_Squid" fill="#FFFFFF"></path>
    </g>
</svg>

<svg xmlns="http://www.w3.org/2000/svg" width="80" height="80"><defs><linearGradient id="a" x1="0%" x2="100%" y1="100%" y2="0%"><stop offset="0%" stop-color="#B0084D"/><stop offset="100%" stop-color="#FF4F8B"/></linearGradient></defs><g fill="none" fill-rule="evenodd"><path fill="url(#a)" d="M0 0h80v80H0z"/><path fill="#FFF" d="M47 54.998h13v2H47v2h-2v-2h-4v-2h4v-1h2v1Zm4-6h9v2h-9v2h-2v-2h-8v-2h8v-1.001h2v1Zm5-6.002h4v2h-4v2h-2v-2H41v-2h13v-1h2v1Zm-35 4h9v2.001h-9c-1.255 0-2.596-.377-3.587-1.008-2.02-1.28-5.413-4.274-5.413-9.947 0-6.881 4.665-9.407 7.38-10.292l-.054-.916c-.002-5.668 3.748-11.48 8.72-13.577 5.823-2.476 11.99-1.25 16.499 3.28 1.399 1.402 2.551 3.11 3.433 5.094a6.737 6.737 0 0 1 6.422-1.245c2.847.934 4.619 3.565 4.827 7.108 2.838.68 8.773 3.014 8.773 10.638 0 .285-.011.56-.022.823l-1.999-.053c.01-.267.021-.513.021-.77 0-6.734-5.557-8.426-7.946-8.84a.999.999 0 0 1-.808-1.194c-.029-2.981-1.29-5.097-3.47-5.812-1.953-.643-4.099.066-5.342 1.758a.995.995 0 0 1-.952.396.997.997 0 0 1-.796-.654c-.833-2.343-2.03-4.306-3.557-5.835-3.913-3.932-9.262-4.996-14.303-2.852-4.208 1.774-7.502 6.903-7.502 11.676l.099 1.654a1 1 0 0 1-.752 1.027C18.18 30.09 14 32.05 14 38.042c0 4.48 2.438 6.963 4.485 8.258.675.43 1.638.697 2.515.697Zm45 5.322-1.764-.101a1.013 1.013 0 0 0-1.032.779 13.42 13.42 0 0 1-1.748 4.22 1 1 0 0 0 .181 1.282l1.317 1.174-3.281 3.282-1.171-1.313a.998.998 0 0 0-1.28-.18 13.432 13.432 0 0 1-4.225 1.75 1 1 0 0 0-.777 1.033l.1 1.756h-4.64l.1-1.758a1 1 0 0 0-.777-1.033 13.435 13.435 0 0 1-4.223-1.751.996.996 0 0 0-1.28.18l-1.174 1.315-3.28-3.281 1.315-1.172a1 1 0 0 0 .18-1.28 13.428 13.428 0 0 1-1.747-4.224c-.107-.478-.585-.804-1.032-.78L34 52.319v-4.641l1.768.101A1.02 1.02 0 0 0 36.8 47a13.435 13.435 0 0 1 1.75-4.215 1.002 1.002 0 0 0-.18-1.281l-1.324-1.181 3.281-3.282 1.181 1.324a1 1 0 0 0 1.279.179c1.3-.82 2.718-1.407 4.216-1.745a1 1 0 0 0 .777-1.033l-.1-1.771h4.64l-.1 1.773a.999.999 0 0 0 .777 1.032c1.495.34 2.912.926 4.214 1.747a1 1 0 0 0 1.279-.18l1.183-1.326 3.281 3.282-1.321 1.178a1.002 1.002 0 0 0-.18 1.281A13.406 13.406 0 0 1 63.202 47c.108.476.561.804 1.032.778L66 47.677v4.64Zm.943-6.698-2.001.114a15.36 15.36 0 0 0-1.363-3.289l1.497-1.335a1 1 0 0 0 .041-1.453l-4.778-4.779a.985.985 0 0 0-.735-.292 1 1 0 0 0-.718.333l-1.34 1.502a15.432 15.432 0 0 0-3.283-1.36l.114-2.01a.995.995 0 0 0-.272-.743.996.996 0 0 0-.726-.313h-6.758a.996.996 0 0 0-.726.313c-.19.2-.288.469-.272.744l.114 2.006a15.381 15.381 0 0 0-3.285 1.36l-1.338-1.499a1 1 0 0 0-.718-.333.964.964 0 0 0-.735.292l-4.778 4.779a.998.998 0 0 0 .041 1.453l1.5 1.338a15.412 15.412 0 0 0-1.364 3.286l-2.003-.114a1 1 0 0 0-1.057.998v6.759a1 1 0 0 0 1.057.998l1.996-.114c.325 1.148.781 2.25 1.362 3.293l-1.491 1.33a1.002 1.002 0 0 0-.041 1.454l4.778 4.779a.999.999 0 0 0 1.453-.041l1.33-1.493a15.349 15.349 0 0 0 3.292 1.368l-.113 1.992A.998.998 0 0 0 46.621 68h6.758a1 1 0 0 0 .998-1.057l-.113-1.99a15.421 15.421 0 0 0 3.294-1.367l1.328 1.49a.999.999 0 0 0 1.453.04l4.778-4.778a.998.998 0 0 0-.042-1.454l-1.493-1.332a15.435 15.435 0 0 0 1.363-3.291l1.998.114A1 1 0 0 0 68 53.377v-6.76a1 1 0 0 0-1.057-.997Z"/></g></svg>
